libs/ui/packages/crypto-icons/src/svg/VRSC.svg

<svg width="24" height="24" viewBox="0 0 24 24" fill="none">
<path d="M20.9232 10.8963C20.7063 9.14831 19.9814 7.50234 18.8382 6.1623C18.0383 5.22178 17.0514 4.45807 15.9402 3.9198C14.4488 3.1915 12.7846 2.89112 11.1327 3.05205C9.6008 3.2002 8.13258 3.73923 6.86872 4.61752C5.60487 5.49581 4.58772 6.68393 3.91471 8.06805C3.11168 9.72087 2.83323 11.5797 3.11671 13.3953C3.38797 15.1299 4.16249 16.7468 5.34421 18.0453C7.02797 19.9218 9.53746 21.019 12.0582 20.9898C13.3271 20.9817 14.58 20.7051 15.7343 20.1781C16.8887 19.6512 17.9184 18.8858 18.7558 17.9324C19.5932 16.979 20.2192 15.8591 20.5928 14.6464C20.9663 13.4337 21.079 12.1556 20.9232 10.8963ZM18.1827 8.9538C18.1416 9.01111 18.106 9.07212 18.0762 9.13605L14.1177 17.4745C13.928 17.8728 13.7375 18.2755 13.5215 18.6595C12.5412 18.652 11.561 18.6558 10.58 18.6558C9.01772 15.4398 7.46297 12.2208 5.89696 9.00855C5.86471 8.9463 5.83171 8.8803 5.79871 8.81805C5.82421 8.80005 5.88271 8.76705 5.90821 8.75205C6.51946 7.99155 7.13822 7.23405 7.75247 6.4728C7.82897 6.37455 7.91747 6.2793 8.00447 6.19155C8.04497 6.2568 8.08472 6.3228 8.11772 6.3963C8.45822 7.1793 8.80547 7.96605 9.15272 8.7483C9.50522 8.7483 9.85547 8.7558 10.2102 8.7333C10.3385 8.8548 10.4082 9.01605 10.4592 9.1803C10.5252 9.0123 10.5507 8.83305 10.5582 8.65005C10.6715 7.60005 10.6902 6.5388 10.8035 5.4888C10.8215 5.2623 11.162 5.2623 11.1912 5.4813C11.3007 6.47655 11.3262 7.48305 11.4072 8.4813C11.4222 8.7813 11.4327 9.0813 11.4987 9.3738C11.6487 9.17655 11.6007 8.8293 11.8752 8.7483C12.1025 8.6718 12.3582 8.80005 12.5742 8.6643C12.8705 8.48505 12.98 8.13405 13.1667 7.85955C13.2732 7.6803 13.5177 7.55205 13.7157 7.6548C13.913 7.7313 13.997 7.94355 14.0997 8.1123C14.2167 8.3058 14.3232 8.5218 14.513 8.65005C14.6817 8.7228 14.8715 8.73405 15.0545 8.7303C15.4242 7.8963 15.8045 7.0653 16.1817 6.23505C16.8402 7.0623 17.462 7.91505 18.1205 8.74155C18.2195 8.78505 18.2375 8.85855 18.1827 8.9538Z" fill="#FFB500"/>
<path d="M13.5545 7.90679C13.2582 8.22929 13.1525 8.74829 12.7092 8.91329C12.4827 9.02279 12.2082 8.93129 11.9817 9.01604C11.7837 9.40379 11.8092 9.86054 11.6592 10.2633C11.5572 10.4538 11.2497 10.3585 11.2497 10.15C11.1222 9.05579 11.111 7.95104 10.994 6.85754C10.8695 7.84154 10.8365 8.83604 10.6827 9.81254C10.6827 10.066 10.2837 10.1058 10.2477 9.85379C10.1705 9.56879 10.1525 9.26879 10.0092 9.00104C9.76174 8.99739 9.51421 8.99739 9.26672 9.00104C10.1997 11.116 11.1252 13.2303 12.0582 15.3453C13.0025 13.2303 13.979 11.1303 14.9157 9.01229L14.9195 9.00479C14.6742 8.97479 14.4072 8.95004 14.2025 8.79629C13.9175 8.55854 13.8072 8.17754 13.5545 7.90679Z" fill="#FFB500"/>
</svg>

<svg width="24" height="24" viewBox="0 0 24 24" fill="none"><path fill="#ffb500" d="M20.923 10.896a9 9 0 0 0-2.085-4.734A8.9 8.9 0 0 0 15.94 3.92a8.988 8.988 0 0 0-12.823 9.476 8.97 8.97 0 0 0 2.227 4.65c1.684 1.876 4.193 2.973 6.714 2.944a8.99 8.99 0 0 0 8.865-10.094m-2.74-1.942a1 1 0 0 0-.107.182l-3.958 8.339c-.19.398-.38.8-.597 1.185-.98-.008-1.96-.004-2.941-.004-1.562-3.216-3.117-6.435-4.683-9.647q-.048-.096-.098-.191c.025-.018.084-.051.11-.066.61-.76 1.23-1.518 1.843-2.28.077-.097.165-.193.252-.28.041.065.08.13.114.204.34.783.687 1.57 1.035 2.352.352 0 .702.008 1.057-.015.128.122.198.283.25.447a1.6 1.6 0 0 0 .098-.53c.114-1.05.132-2.111.245-3.161.018-.227.359-.227.388-.008.11.996.135 2.002.216 3 .015.3.026.6.092.893.15-.197.102-.545.376-.626.227-.076.483.052.7-.084.296-.179.405-.53.592-.804.106-.18.35-.308.549-.205.197.076.281.289.384.457.117.194.223.41.413.538.169.073.358.084.542.08.37-.834.75-1.665 1.127-2.495.658.827 1.28 1.68 1.939 2.507.099.043.117.117.062.212"/><path fill="#ffb500" d="M13.555 7.907c-.297.322-.402.841-.846 1.006-.226.11-.5.018-.727.103-.198.388-.173.845-.323 1.247-.102.19-.41.095-.41-.113-.127-1.094-.138-2.199-.255-3.292-.124.984-.158 1.978-.311 2.955 0 .253-.4.293-.435.04-.077-.284-.095-.584-.239-.852a25 25 0 0 0-.742 0c.933 2.115 1.858 4.23 2.791 6.344.944-2.115 1.921-4.215 2.858-6.333l.003-.007c-.245-.03-.512-.055-.716-.209-.285-.237-.396-.618-.648-.89"/></svg>
